; generated by Slic3r 1.3.0 on 2022-12-28 at 12:28:02

; external perimeters extrusion width = 0.55mm (3.04mm^3/s)
; perimeters extrusion width = 0.70mm (7.88mm^3/s)
; infill extrusion width = 0.62mm (9.31mm^3/s)
; solid infill extrusion width = 0.70mm (2.63mm^3/s)
; top infill extrusion width = 0.70mm (1.97mm^3/s)

M107
M190 S80 ; set bed temperature and wait for it to be reached
M104 S230 ; set temperature
G28 ; home all axes
G1 Z5 F5000 ; lift nozzle

; Filament gcode

M109 S230 ; set temperature and wait for it to be reached
G21 ; set units to millimeters
G90 ; use absolute coordinates
M82 ; use absolute distances for extrusion
G92 E0
G1 Z0.500 F7800.000
G1 E-2.00000 F2400.00000
G92 E0
G1 X71.629 Y82.938 F7800.000
G1 E2.00000 F2400.00000
G1 F1800
G1 X72.344 Y82.389 E2.16726
G1 X72.671 Y82.171 E2.24014
G1 X73.451 Y81.720 E2.40727
G1 X73.803 Y81.546 E2.48028
G1 X74.635 Y81.202 E2.64739
G1 X75.008 Y81.075 E2.72039
G1 X75.877 Y80.842 E2.88730
G1 X76.264 Y80.765 E2.96054
G1 X77.158 Y80.648 E3.12785
G1 X78.000 Y80.607 E3.28435
G1 X122.000 Y80.607 E11.44945
G1 X122.842 Y80.648 E11.60596
G1 X123.736 Y80.765 E11.77319
G1 X124.121 Y80.842 E11.84609
G1 X124.990 Y81.075 E12.01310
G1 X125.364 Y81.201 E12.08624
G1 X126.194 Y81.545 E12.25302
G1 X126.549 Y81.720 E12.32635
G1 X127.329 Y82.170 E12.49355
G1 X127.656 Y82.389 E12.56649
G1 X128.371 Y82.938 E12.73380
G1 X128.667 Y83.197 E12.80681
G1 X129.304 Y83.834 E12.97395
G1 X129.562 Y84.129 E13.04677
G1 X130.111 Y84.844 E13.21407
G1 X130.329 Y85.171 E13.28689
G1 X130.780 Y85.951 E13.45421
G1 X130.954 Y86.303 E13.52704
G1 X131.299 Y87.136 E13.69432
G1 X131.423 Y87.504 E13.76638
G1 X131.658 Y88.379 E13.93446
G1 X131.735 Y88.765 E14.00749
G1 X131.852 Y89.658 E14.17461
G1 X131.893 Y90.500 E14.33110
G1 X131.893 Y109.500 E17.85694
G1 X131.878 Y109.951 E17.94064
G1 X131.852 Y110.342 E18.01346
G1 X131.735 Y111.236 E18.18079
G1 X131.658 Y111.621 E18.25361
G1 X131.425 Y112.492 E18.42091
G1 X131.299 Y112.864 E18.49374
G1 X130.954 Y113.697 E18.66104
G1 X130.780 Y114.049 E18.73390
G1 X130.329 Y114.829 E18.90118
G1 X130.110 Y115.157 E18.97431
G1 X129.562 Y115.871 E19.14130
G1 X129.303 Y116.166 E19.21420
G1 X128.666 Y116.804 E19.38145
G1 X128.371 Y117.062 E19.45427
G1 X127.656 Y117.611 E19.62159
G1 X127.329 Y117.829 E19.69441
G1 X126.549 Y118.280 E19.86172
G1 X126.197 Y118.454 E19.93454
G1 X125.364 Y118.798 E20.10176
G1 X124.992 Y118.925 E20.17466
G1 X124.120 Y119.158 E20.34226
G1 X123.736 Y119.235 E20.41481
G1 X122.842 Y119.352 E20.58211
G1 X122.000 Y119.393 E20.73861
G1 X78.000 Y119.393 E28.90372
G1 X77.158 Y119.352 E29.06022
G1 X76.264 Y119.235 E29.22753
G1 X75.879 Y119.158 E29.30035
G1 X75.008 Y118.925 E29.46767
G1 X74.636 Y118.799 E29.54049
G1 X73.803 Y118.454 E29.70780
G1 X73.451 Y118.280 E29.78062
G1 X72.671 Y117.829 E29.94793
G1 X72.344 Y117.611 E30.02089
G1 X71.629 Y117.062 E30.18807
G1 X71.334 Y116.804 E30.26089
G1 X70.696 Y116.166 E30.42821
G1 X70.438 Y115.871 E30.50103
G1 X69.890 Y115.157 E30.66802
G1 X69.671 Y114.829 E30.74115
G1 X69.220 Y114.049 E30.90847
G1 X69.046 Y113.697 E30.98129
G1 X68.702 Y112.865 E31.14831
G1 X68.575 Y112.492 E31.22143
G1 X68.342 Y111.623 E31.38838
G1 X68.265 Y111.236 E31.46155
G1 X68.148 Y110.342 E31.62887
G1 X68.122 Y109.950 E31.70180
G1 X68.107 Y109.500 E31.78539
G1 X68.107 Y90.500 E35.31123
G1 X68.148 Y89.658 E35.46774
G1 X68.266 Y88.762 E35.63542
G1 X68.342 Y88.379 E35.70788
G1 X68.575 Y87.509 E35.87497
G1 X68.701 Y87.136 E35.94800
G1 X69.046 Y86.305 E36.11507
G1 X69.220 Y85.951 E36.18813
G1 X69.671 Y85.171 E36.35545
G1 X69.889 Y84.844 E36.42827
G1 X70.438 Y84.129 E36.59557
G1 X70.697 Y83.833 E36.66862
G1 X71.333 Y83.197 E36.83546
G1 X71.573 Y82.987 E36.89461
G1 E34.89461 F2400.00000
G92 E0
G1 X110.903 Y104.161 F7800.000
G1 E2.00000 F2400.00000
G1 F1800
G1 X109.744 Y104.641 E2.23278
G1 X108.476 Y104.808 E2.46996
G1 X107.249 Y104.638 E2.69985
G1 X106.097 Y104.161 E2.93122
G1 X105.102 Y103.398 E3.16399
G1 X104.339 Y102.403 E3.39677
G1 X103.852 Y101.227 E3.63284
G1 X103.703 Y99.942 E3.87295
G1 X103.859 Y98.756 E4.09487
G1 X104.339 Y97.597 E4.32765
G1 X105.102 Y96.602 E4.56043
G1 X106.097 Y95.839 E4.79321
G1 X107.256 Y95.359 E5.02598
G1 X108.524 Y95.192 E5.26316
G1 X109.751 Y95.362 E5.49306
G1 X110.919 Y95.845 E5.72772
G1 X111.933 Y96.649 E5.96783
G1 X112.661 Y97.597 E6.18975
G1 X113.148 Y98.773 E6.42582
G1 X113.297 Y100.058 E6.66593
G1 X113.141 Y101.244 E6.88785
G1 X112.661 Y102.403 E7.12063
G1 X111.898 Y103.398 E7.35340
G1 X110.962 Y104.116 E7.57226
G1 X110.452 Y103.382 F7800.000
G1 F1800
G1 X109.511 Y103.772 E7.76142
G1 X108.479 Y103.907 E7.95443
G1 X107.485 Y103.770 E8.14071
G1 X106.548 Y103.382 E8.32901
G1 X105.739 Y102.761 E8.51816
G1 X105.118 Y101.952 E8.70732
G1 X104.724 Y101.001 E8.89849
G1 X104.602 Y99.949 E9.09498
G1 X104.728 Y98.989 E9.27456
G1 X105.118 Y98.048 E9.46372
G1 X105.739 Y97.239 E9.65288
G1 X106.548 Y96.618 E9.84204
G1 X107.489 Y96.228 E10.03120
G1 X108.521 Y96.093 E10.22421
G1 X109.515 Y96.230 E10.41048
G1 X110.462 Y96.623 E10.60079
G1 X111.292 Y97.280 E10.79728
G1 X111.882 Y98.048 E10.97686
G1 X112.276 Y98.999 E11.16803
G1 X112.398 Y100.051 E11.36452
G1 X112.272 Y101.011 E11.54410
G1 X111.882 Y101.952 E11.73326
G1 X111.261 Y102.761 E11.92242
G1 X110.512 Y103.336 E12.09766
G1 X110.002 Y102.602 F7800.000
G1 F1800
G1 X109.278 Y102.902 E12.24320
G1 X108.482 Y103.007 E12.39204
G1 X107.721 Y102.901 E12.53470
G1 X106.998 Y102.602 E12.67993
G1 X106.376 Y102.124 E12.82547
G1 X105.898 Y101.502 E12.97101
G1 X105.597 Y100.774 E13.11727
G1 X105.502 Y99.956 E13.27013
G1 X105.598 Y99.222 E13.40739
G1 X105.898 Y98.498 E13.55293
G1 X106.376 Y97.876 E13.69847
G1 X106.998 Y97.398 E13.84401
G1 X107.722 Y97.098 E13.98955
G1 X108.518 Y96.993 E14.13838
G1 X109.279 Y97.099 E14.28104
G1 X110.006 Y97.400 E14.42699
G1 X110.652 Y97.911 E14.57986
G1 X111.102 Y98.498 E14.71711
G1 X111.403 Y99.226 E14.86337
G1 X111.498 Y100.044 E15.01624
G1 X111.402 Y100.778 E15.15349
G1 X111.102 Y101.502 E15.29903
G1 X110.624 Y102.124 E15.44457
G1 X110.062 Y102.556 E15.57619
G1 X110.002 Y102.602 F7800.000
G1 E13.57619 F2400.00000
G92 E0
G1 X96.201 Y100.774 F7800.000
G1 E2.00000 F2400.00000
G1 F1800
G1 X96.140 Y101.234 E2.08611
G1 X95.660 Y102.393 E2.31889
G1 X94.895 Y103.387 E2.55167
G1 X93.899 Y104.150 E2.78444
G1 X92.740 Y104.629 E3.01722
G1 X91.496 Y104.792 E3.25000
G1 X90.253 Y104.627 E3.48278
G1 X89.094 Y104.147 E3.71555
G1 X88.086 Y103.371 E3.95162
G1 X87.314 Y102.332 E4.19173
G1 X86.858 Y101.227 E4.41366
G1 X86.693 Y99.966 E4.64973
G1 X86.882 Y98.686 E4.88984
G1 X87.340 Y97.581 E5.11176
G1 X88.105 Y96.587 E5.34454
G1 X89.101 Y95.824 E5.57731
G1 X90.260 Y95.345 E5.81009
G1 X91.446 Y95.189 E6.03201
G1 X92.731 Y95.340 E6.27212
G1 X93.906 Y95.828 E6.50819
G1 X94.900 Y96.592 E6.74097
G1 X95.663 Y97.588 E6.97375
G1 X96.142 Y98.747 E7.20652
G1 X96.305 Y99.991 E7.43930
G1 X96.211 Y100.700 E7.57205
G1 X95.316 Y100.657 F7800.000
G1 F1800
G1 X95.271 Y101.001 E7.63635
G1 X94.880 Y101.942 E7.82551
G1 X94.259 Y102.750 E8.01467
G1 X93.450 Y103.370 E8.20383
G1 X92.508 Y103.759 E8.39299
G1 X91.497 Y103.892 E8.58215
G1 X90.487 Y103.758 E8.77130
G1 X89.545 Y103.367 E8.96046
G1 X88.728 Y102.739 E9.15163
G1 X88.097 Y101.889 E9.34812
G1 X87.728 Y100.995 E9.52770
G1 X87.594 Y99.973 E9.71887
G1 X87.749 Y98.926 E9.91536
G1 X88.120 Y98.032 E10.09495
G1 X88.741 Y97.224 E10.28410
G1 X89.550 Y96.604 E10.47326
G1 X90.492 Y96.215 E10.66242
G1 X91.452 Y96.089 E10.84201
G1 X92.504 Y96.212 E11.03850
G1 X93.455 Y96.607 E11.22966
G1 X94.263 Y97.228 E11.41882
G1 X94.883 Y98.037 E11.60798
G1 X95.272 Y98.979 E11.79714
G1 X95.405 Y99.990 E11.98630
G1 X95.326 Y100.583 E12.09724
G1 X94.431 Y100.540 F7800.000
G1 F1800
G1 X94.401 Y100.767 E12.13973
G1 X94.101 Y101.491 E12.28527
G1 X93.623 Y102.113 E12.43081
G1 X93.000 Y102.590 E12.57635
G1 X92.275 Y102.890 E12.72189
G1 X91.498 Y102.991 E12.86743
G1 X90.720 Y102.888 E13.01297
G1 X89.996 Y102.588 E13.15851
G1 X89.371 Y102.107 E13.30477
G1 X88.880 Y101.446 E13.45764
G1 X88.597 Y100.762 E13.59489
G1 X88.495 Y99.981 E13.74115
G1 X88.616 Y99.166 E13.89402
G1 X88.899 Y98.483 E14.03127
G1 X89.377 Y97.861 E14.17681
G1 X90.000 Y97.384 E14.32235
G1 X90.725 Y97.084 E14.46789
G1 X91.458 Y96.989 E14.60514
G1 X92.276 Y97.084 E14.75801
G1 X93.004 Y97.386 E14.90427
G1 X93.626 Y97.864 E15.04981
G1 X94.103 Y98.487 E15.19535
G1 X94.403 Y99.212 E15.34089
G1 X94.504 Y99.989 E15.48643
G1 X94.441 Y100.465 E15.57556
G1 X94.620 Y100.670 F7800.000
G1 E13.57556 F2400.00000
G92 E0
G1 X94.431 Y110.215 F7800.000
G1 E2.00000 F2400.00000
G1 F1800
G1 X78.075 Y110.215 E5.03530
G1 X77.907 Y110.204 E5.06644
G1 X77.728 Y110.156 E5.10082
G1 X77.568 Y110.063 E5.13521
G1 X77.437 Y109.932 E5.16958
G1 X77.314 Y109.684 E5.22097
G1 X77.285 Y109.425 E5.26924
G1 X77.285 Y90.575 E8.76732
G1 X77.296 Y90.407 E8.79846
G1 X77.344 Y90.228 E8.83284
G1 X77.437 Y90.068 E8.86722
G1 X77.568 Y89.937 E8.90160
G1 X77.816 Y89.814 E8.95299
G1 X78.075 Y89.785 E9.00126
G1 X121.929 Y89.786 E17.13935
G1 X122.093 Y89.796 E17.16974
G1 X122.270 Y89.844 E17.20383
G1 X122.432 Y89.937 E17.23849
G1 X122.563 Y90.068 E17.27287
G1 X122.686 Y90.316 E17.32426
G1 X122.715 Y90.576 E17.37281
G1 X122.715 Y109.425 E20.87060
G1 X122.704 Y109.593 E20.90174
G1 X122.656 Y109.772 E20.93612
G1 X122.564 Y109.930 E20.97003
G1 X122.432 Y110.063 E21.00487
G1 X122.184 Y110.186 E21.05626
G1 X121.925 Y110.215 E21.10454
G1 X94.506 Y110.215 E26.19265
G1 X94.431 Y111.107 F7800.000
G1 F1800
G1 X78.046 Y111.107 E29.23338
G1 X77.791 Y111.091 E29.28080
G1 X77.585 Y111.050 E29.31974
G1 X77.386 Y110.982 E29.35868
G1 X77.198 Y110.889 E29.39763
G1 X77.023 Y110.773 E29.43657
G1 X76.866 Y110.634 E29.47551
G1 X76.727 Y110.477 E29.51446
G1 X76.611 Y110.302 E29.55340
G1 X76.518 Y110.114 E29.59234
G1 X76.450 Y109.915 E29.63129
G1 X76.409 Y109.709 E29.67023
G1 X76.393 Y109.454 E29.71765
G1 X76.393 Y90.546 E33.22657
G1 X76.409 Y90.291 E33.27399
G1 X76.450 Y90.085 E33.31293
G1 X76.518 Y89.886 E33.35188
G1 X76.611 Y89.698 E33.39082
G1 X76.727 Y89.523 E33.42976
G1 X76.866 Y89.366 E33.46870
G1 X77.023 Y89.227 E33.50765
G1 X77.198 Y89.111 E33.54659
G1 X77.386 Y89.018 E33.58553
G1 X77.585 Y88.950 E33.62448
G1 X77.791 Y88.909 E33.66342
G1 X78.046 Y88.893 E33.71084
G1 X121.958 Y88.893 E41.85978
G1 X122.209 Y88.909 E41.90644
G1 X122.415 Y88.950 E41.94539
G1 X122.613 Y89.018 E41.98415
G1 X122.805 Y89.112 E42.02385
G1 X122.977 Y89.227 E42.06221
G1 X123.134 Y89.366 E42.10115
G1 X123.273 Y89.523 E42.14009
G1 X123.389 Y89.698 E42.17903
G1 X123.482 Y89.886 E42.21798
G1 X123.550 Y90.085 E42.25692
G1 X123.590 Y90.288 E42.29528
G1 X123.607 Y90.547 E42.34345
G1 X123.607 Y109.454 E45.85220
G1 X123.591 Y109.709 E45.89962
G1 X123.550 Y109.915 E45.93856
G1 X123.482 Y110.114 E45.97751
G1 X123.389 Y110.302 E46.01645
G1 X123.275 Y110.474 E46.05481
G1 X123.134 Y110.635 E46.09450
G1 X122.977 Y110.773 E46.13327
G1 X122.802 Y110.889 E46.17221
G1 X122.614 Y110.982 E46.21116
G1 X122.415 Y111.050 E46.25010
G1 X122.209 Y111.091 E46.28904
G1 X121.954 Y111.107 E46.33646
G1 X94.506 Y111.107 E51.43000
G1 X94.431 Y112.000 F7800.000
G1 F1800
G1 X78.016 Y112.000 E54.47615
G1 X77.674 Y111.978 E54.53986
G1 X77.353 Y111.914 E54.60051
G1 X77.044 Y111.809 E54.66117
G1 X76.751 Y111.664 E54.72183
G1 X76.479 Y111.483 E54.78249
G1 X76.233 Y111.267 E54.84315
G1 X76.017 Y111.021 E54.90381
G1 X75.836 Y110.749 E54.96446
G1 X75.691 Y110.456 E55.02512
G1 X75.586 Y110.147 E55.08578
G1 X75.522 Y109.826 E55.14644
G1 X75.500 Y109.484 E55.21014
G1 X75.500 Y90.516 E58.72991
G1 X75.522 Y90.174 E58.79361
G1 X75.586 Y89.853 E58.85427
G1 X75.691 Y89.544 E58.91493
G1 X75.836 Y89.251 E58.97559
G1 X76.017 Y88.979 E59.03624
G1 X76.233 Y88.733 E59.09690
G1 X76.479 Y88.517 E59.15756
G1 X76.751 Y88.336 E59.21822
G1 X77.044 Y88.191 E59.27888
G1 X77.353 Y88.086 E59.33954
G1 X77.674 Y88.022 E59.40020
G1 X78.016 Y88.000 E59.46390
G1 X121.988 Y88.000 E67.62368
G1 X122.326 Y88.022 E67.68663
G1 X122.647 Y88.086 E67.74729
G1 X122.956 Y88.191 E67.80788
G1 X123.253 Y88.338 E67.86929
G1 X123.521 Y88.517 E67.92926
G1 X123.767 Y88.733 E67.98991
G1 X123.983 Y88.979 E68.05057
G1 X124.164 Y89.251 E68.11123
G1 X124.309 Y89.544 E68.17189
G1 X124.414 Y89.853 E68.23255
G1 X124.477 Y90.170 E68.29251
G1 X124.500 Y90.517 E68.35697
G1 X124.500 Y109.484 E71.87667
G1 X124.478 Y109.826 E71.94037
G1 X124.414 Y110.147 E72.00103
G1 X124.309 Y110.456 E72.06169
G1 X124.164 Y110.749 E72.12235
G1 X123.985 Y111.018 E72.18231
G1 X123.767 Y111.267 E72.24372
G1 X123.521 Y111.483 E72.30432
G1 X123.249 Y111.664 E72.36497
G1 X122.956 Y111.809 E72.42563
G1 X122.647 Y111.914 E72.48629
G1 X122.326 Y111.978 E72.54695
G1 X121.984 Y112.000 E72.61065
G1 X94.506 Y112.000 E77.70962
G1 X94.181 Y111.567 F7800.000
G1 E75.70962 F2400.00000
G92 E0
G1 X89.695 Y109.669 F7800.000
G1 E2.00000 F2400.00000
G1 F1800
G1 X95.060 Y104.304 E3.41764
G1 X94.696 Y104.583 E3.50332
G1 X93.320 Y105.152 E3.78162
G1 X92.884 Y105.209 E3.86368
G1 X88.424 Y109.669 E5.04224
G1 X87.153 Y109.669 E5.27975
G1 X91.520 Y105.303 E6.43360
G1 X90.397 Y105.154 E6.64518
G1 X85.882 Y109.669 E7.83831
G1 X84.611 Y109.669 E8.07582
G1 X89.493 Y104.787 E9.36587
G1 X88.991 Y104.579 E9.46741
G1 X88.674 Y104.335 E9.54215
G1 X83.339 Y109.669 E10.95165
G1 X82.068 Y109.669 E11.18917
G1 X87.955 Y103.783 E12.74465
G1 X87.790 Y103.656 E12.78344
G1 X87.373 Y103.094 E12.91433
G1 X80.797 Y109.669 E14.65189
G1 X79.526 Y109.669 E14.88941
G1 X86.846 Y102.349 E16.82372
G1 X86.474 Y101.450 E17.00557
G1 X78.255 Y109.669 E19.17756
G1 X77.831 Y109.669 E19.25676
G1 X77.831 Y108.822 E19.41508
G1 X86.243 Y100.410 E21.63794
G1 X86.138 Y99.611 E21.78844
G1 X86.202 Y99.179 E21.87002
G1 X77.831 Y107.551 E24.08215
G1 X77.831 Y106.279 E24.31967
G1 E22.31967 F2400.00000
G92 E0
G1 X77.831 Y91.025 F7800.000
G1 E2.00000 F2400.00000
G1 F1800
G1 X78.525 Y90.331 E2.18348
G1 X79.797 Y90.331 E2.42100
G1 X77.831 Y92.297 E2.94042
G1 X77.831 Y93.568 E3.17794
G1 X81.068 Y90.331 E4.03325
G1 X82.339 Y90.331 E4.27077
G1 X77.831 Y94.839 E5.46199
G1 X77.831 Y96.110 E5.69951
G1 X83.610 Y90.331 E7.22663
G1 X84.881 Y90.331 E7.46414
G1 X77.831 Y97.381 E9.32716
G1 X77.831 Y98.652 E9.56468
G1 X86.152 Y90.331 E11.76360
G1 X87.424 Y90.331 E12.00111
G1 X77.831 Y99.924 E14.53593
G1 X77.831 Y101.195 E14.77345
G1 X88.695 Y90.331 E17.64417
G1 X89.966 Y90.331 E17.88168
G1 X77.831 Y102.466 E21.08830
G1 X77.831 Y103.737 E21.32582
G1 X91.237 Y90.331 E24.86834
G1 X92.508 Y90.331 E25.10585
G1 X77.831 Y105.008 E28.98427
G1 X77.831 Y106.279 E29.22179
G1 X85.917 Y98.194 E31.35842
G1 X86.214 Y97.478 E31.50327
G1 X87.121 Y96.297 E31.78157
G1 X88.304 Y95.391 E32.05987
G1 X89.012 Y95.098 E32.20310
G1 X93.779 Y90.331 E33.46279
G1 X95.051 Y90.331 E33.70031
G1 X90.692 Y94.690 E34.85205
G1 X91.092 Y94.637 E34.92750
G1 X91.919 Y94.734 E35.08299
G1 X96.322 Y90.331 E36.24642
G1 X97.593 Y90.331 E36.48394
G1 X92.963 Y94.961 E37.70737
G1 X93.861 Y95.334 E37.88910
G1 X98.864 Y90.331 E39.21107
G1 X100.135 Y90.331 E39.44858
G1 X94.610 Y95.857 E40.90870
G1 X95.190 Y96.303 E41.04554
G1 X95.296 Y96.441 E41.07809
G1 X101.406 Y90.331 E42.69266
G1 X102.678 Y90.331 E42.93018
G1 X95.848 Y97.161 E44.73494
G1 X96.096 Y97.485 E44.81128
G1 X96.300 Y97.979 E44.91119
G1 X103.949 Y90.331 E46.93223
G1 X105.220 Y90.331 E47.16975
G1 X96.668 Y98.883 E49.42958
G1 X96.815 Y100.007 E49.64140
G1 X106.491 Y90.331 E52.19826
G1 X107.762 Y90.331 E52.43578
G1 X96.721 Y101.372 E55.35323
G1 X96.663 Y101.815 E55.43680
G1 X96.092 Y103.191 E55.71510
G1 X95.820 Y103.545 E55.79853
G1 X109.033 Y90.331 E59.29020
G1 X110.305 Y90.331 E59.52772
G1 X104.997 Y95.639 E60.93024
G1 X105.300 Y95.406 E61.00164
G1 X106.676 Y94.836 E61.27994
G1 X107.130 Y94.776 E61.36558
G1 X111.576 Y90.331 E62.54019
G1 X112.847 Y90.331 E62.77771
G1 X108.496 Y94.682 E63.92741
G1 X109.613 Y94.836 E64.13806
G1 X114.118 Y90.331 E65.32858
G1 X115.389 Y90.331 E65.56609
G1 X110.517 Y95.204 E66.85362
G1 X111.028 Y95.416 E66.95710
G1 X111.334 Y95.657 E67.02993
G1 X116.660 Y90.331 E68.43740
G1 X117.931 Y90.331 E68.67492
G1 X112.043 Y96.219 E70.23083
